static/assets/images/exchanges/dexalot.svg

<svg width="319" height="256" viewBox="0 0 319 256" fill="none" xmlns="http://www.w3.org/2000/svg">
<path fill-rule="evenodd" clip-rule="evenodd" d="M58.4498 164.381C61.3061 206.983 110.71 256.513 159.123 255.996C211.885 255.432 260.55 208.492 260.55 164.004V162.495C320.879 130.072 318.993 89.7306 318.993 89.7306L246.599 134.973C303.534 91.2387 302.78 43.3573 302.78 43.3573L226.615 116.122C277.518 34.6858 259.796 0 259.796 0L199.468 98.0251C187.025 94.6319 173.451 92.7468 159.123 92.7468H157.615C142.91 92.7468 129.713 94.6319 117.27 98.0251L58.8268 0C58.8268 0 38.843 31.6696 89.3681 113.483L15.8428 43.3573C15.8428 43.3573 8.67876 85.5834 69.0073 132.334C69.0073 133.088 0.00652342 90.1077 0.00652342 90.1077C0.00652342 90.1077 -1.87874 130.449 58.4498 162.872V164.381ZM231.894 171.921C231.894 171.921 214.55 170.79 203.992 181.346C194.189 191.149 194.566 209.246 194.566 209.246C194.566 209.246 211.91 210.377 222.468 199.82C233.402 189.641 231.894 171.921 231.894 171.921ZM118.024 181.346C107.844 170.413 90.1222 171.921 90.1222 171.921C90.1222 171.921 88.9911 190.018 99.5485 199.82C109.729 210.754 127.45 209.246 127.45 209.246C127.45 209.246 128.582 191.903 118.024 181.346Z" fill="url(#paint0_linear_9885_1233)"/>
<defs>
<linearGradient id="paint0_linear_9885_1233" x1="60.2075" y1="431.554" x2="236.997" y2="20.8185" gradientUnits="userSpaceOnUse">
<stop stop-color="#F5477B"/>
<stop offset="1" stop-color="#CD31AE"/>
</linearGradient>
</defs>
</svg>

<svg xmlns="http://www.w3.org/2000/svg" fill="none" viewBox="0 0 319 256"><path fill="url(#paint0_linear_9885_1233)" fill-rule="evenodd" d="M58.45 164.381c2.856 42.602 52.26 92.132 100.673 91.615 52.762-.564 101.427-47.504 101.427-91.992v-1.509c60.329-32.423 58.443-72.764 58.443-72.764l-72.394 45.242c56.935-43.734 56.181-91.616 56.181-91.616l-76.165 72.765C277.518 34.686 259.796 0 259.796 0l-60.328 98.025c-12.443-3.393-26.017-5.278-40.345-5.278h-1.508c-14.705 0-27.902 1.885-40.345 5.278L58.827 0S38.843 31.67 89.368 113.483L15.843 43.357s-7.164 42.226 53.164 88.977c0 .754-69-42.226-69-42.226s-1.886 40.341 58.443 72.764zm173.444 7.54s-17.344-1.131-27.902 9.425c-9.803 9.803-9.426 27.9-9.426 27.9s17.344 1.131 27.902-9.426c10.934-10.179 9.426-27.899 9.426-27.899m-113.87 9.425c-10.18-10.933-27.902-9.425-27.902-9.425s-1.13 18.097 9.427 27.899c10.18 10.934 27.901 9.426 27.901 9.426s1.132-17.343-9.426-27.9" clip-rule="evenodd"/><defs><linearGradient id="paint0_linear_9885_1233" x1="60.208" x2="236.997" y1="431.554" y2="20.819" gradientUnits="userSpaceOnUse"><stop stop-color="#F5477B"/><stop offset="1" stop-color="#CD31AE"/></linearGradient></defs></svg>
